src/assets/filled/Export3.svg

<svg width="24" height="24" viewBox="0 0 24 24"  xmlns="http://www.w3.org/2000/svg">
<path d="M16.8 9H12.75V15.25C12.75 15.66 12.41 16 12 16C11.59 16 11.25 15.66 11.25 15.25V9H7.2C4 9 2 11 2 14.2V16.79C2 20 4 22 7.2 22H16.79C19.99 22 21.99 20 21.99 16.8V14.2C22 11 20 9 16.8 9Z" />
<path d="M12.7501 4.55994L14.8201 6.62994C14.9701 6.77994 15.1601 6.84994 15.3501 6.84994C15.5401 6.84994 15.7301 6.77994 15.8801 6.62994C16.1701 6.33994 16.1701 5.85994 15.8801 5.56994L12.5301 2.21994C12.2401 1.92994 11.7601 1.92994 11.4701 2.21994L8.12009 5.56994C7.83009 5.85994 7.83009 6.33994 8.12009 6.62994C8.41009 6.91994 8.89009 6.91994 9.18009 6.62994L11.2501 4.55994V8.99994H12.7501V4.55994Z" />
</svg>

<?xml version="1.0" encoding="UTF-8"?>
<svg width="24" height="24" viewBox="0 0 24 24" xmlns="http://www.w3.org/2000/svg">
 <path d="M16.8 9H12.75V15.25C12.75 15.66 12.41 16 12 16C11.59 16 11.25 15.66 11.25 15.25V9H7.2C4 9 2 11 2 14.2V16.79C2 20 4 22 7.2 22H16.79C19.99 22 21.99 20 21.99 16.8V14.2C22 11 20 9 16.8 9Z"/>
 <path d="m12.75 4.5599 2.07 2.07c0.15 0.15 0.34 0.22 0.53 0.22s0.38-0.07 0.53-0.22c0.29-0.29 0.29-0.77 0-1.06l-3.35-3.35c-0.29-0.29-0.77-0.29-1.06 0l-3.35 3.35c-0.29 0.29-0.29 0.77 0 1.06s0.77 0.29 1.06 0l2.07-2.07v4.44h1.5v-4.44z"/>
</svg>
